icons/Thunderstorm--1504976.svg

<svg enable-background="new 0 0 16 16" viewBox="0 0 16 16" xmlns="http://www.w3.org/2000/svg"><path d="m2.25 10.72c-.068 0-.137-.014-.204-.044-1.243-.555-2.046-1.802-2.046-3.176 0-1.902 1.525-3.454 3.416-3.499.787-1.81 2.583-3.001 4.584-3.001 2.409 0 4.436 1.688 4.902 4.001 1.748-.036 3.098 1.312 3.098 2.999 0 .973-.476 1.889-1.271 2.449-.227.158-.538.104-.697-.121-.158-.227-.104-.538.121-.697.531-.373.847-.984.847-1.631 0-1.103-.897-2-2-2-.147 0-.297.017-.428.042-.137.024-.28-.008-.392-.091-.112-.084-.184-.211-.197-.35-.208-2.053-1.92-3.601-3.983-3.601-1.703 0-3.221 1.079-3.777 2.684-.085.245-.341.386-.594.321-.023-.005-.089-.005-.129-.005-1.378 0-2.5 1.122-2.5 2.5 0 .98.571 1.869 1.454 2.264.252.112.365.408.252.66-.082.185-.265.296-.456.296z"/><path d="m5.5 16c-.032 0-.063-.003-.095-.009-.235-.046-.405-.252-.405-.491v-2.5h-1.5c-.166 0-.321-.082-.414-.22s-.112-.312-.05-.466l2-5c.089-.223.324-.348.559-.305.235.045.405.251.405.491v2.5h1.5c.166 0 .321.082.414.22s.111.312.05.466l-2 5c-.077.192-.263.314-.464.314zm-1.262-4h1.262c.276 0 .5.224.5.5v.403l.762-1.903h-1.262c-.276 0-.5-.224-.5-.5v-.403z"/><path d="m10.5 16c-.031 0-.062-.003-.095-.009-.235-.046-.405-.252-.405-.491v-2.5h-1.5c-.166 0-.321-.082-.414-.22s-.112-.312-.05-.466l2-5c.088-.223.316-.351.559-.306.235.046.405.252.405.492v2.5h1.5c.166 0 .321.082.414.22s.111.312.05.466l-2 5c-.076.192-.263.314-.464.314zm-1.262-4h1.262c.276 0 .5.224.5.5v.403l.762-1.903h-1.262c-.276 0-.5-.224-.5-.5v-.403z"/></svg>

<?xml version="1.0" encoding="utf-8"?>
<!DOCTYPE svg PUBLIC "-//W3C//DTD SVG 1.0//EN" "http://www.w3.org/TR/2001/REC-SVG-20010904/DTD/svg10.dtd">
<svg    fill="#000000" xmlns="http://www.w3.org/2000/svg" xmlns:xlink="http://www.w3.org/1999/xlink" version="1.1" x="0px" y="0px" viewBox="0 0 16 16" style="enable-background:new 0 0 16 16;" xml:space="preserve"><g><path d="M2.25,10.72c-0.068,0-0.137-0.014-0.204-0.044C0.803,10.121,0,8.874,0,7.5c0-1.902,1.525-3.454,3.416-3.499   C4.203,2.191,5.999,1,8,1c2.409,0,4.436,1.688,4.902,4.001C14.65,4.965,16,6.313,16,8c0,0.973-0.476,1.889-1.271,2.449   c-0.227,0.158-0.538,0.104-0.697-0.121c-0.158-0.227-0.104-0.538,0.121-0.697C14.684,9.258,15,8.647,15,8c0-1.103-0.897-2-2-2   c-0.147,0-0.297,0.017-0.428,0.042c-0.137,0.024-0.28-0.008-0.392-0.091c-0.112-0.084-0.184-0.211-0.197-0.35   C11.775,3.548,10.063,2,8,2C6.297,2,4.779,3.079,4.223,4.684C4.138,4.929,3.882,5.07,3.629,5.005C3.606,5,3.54,5,3.5,5   C2.122,5,1,6.122,1,7.5c0,0.98,0.571,1.869,1.454,2.264c0.252,0.112,0.365,0.408,0.252,0.66C2.624,10.609,2.441,10.72,2.25,10.72z"></path><path d="M5.5,16c-0.032,0-0.063-0.003-0.095-0.009C5.17,15.945,5,15.739,5,15.5V13H3.5c-0.166,0-0.321-0.082-0.414-0.22   c-0.093-0.138-0.112-0.312-0.05-0.466l2-5C5.125,7.091,5.36,6.966,5.595,7.009C5.83,7.054,6,7.26,6,7.5V10h1.5   c0.166,0,0.321,0.082,0.414,0.22c0.093,0.138,0.111,0.312,0.05,0.466l-2,5C5.887,15.878,5.701,16,5.5,16z M4.238,12H5.5   C5.776,12,6,12.224,6,12.5v0.403L6.762,11H5.5C5.224,11,5,10.776,5,10.5v-0.403L4.238,12z"></path><path d="M10.5,16c-0.031,0-0.062-0.003-0.095-0.009C10.17,15.945,10,15.739,10,15.5V13H8.5c-0.166,0-0.321-0.082-0.414-0.22   s-0.112-0.312-0.05-0.466l2-5c0.088-0.223,0.316-0.351,0.559-0.306C10.83,7.054,11,7.26,11,7.5V10h1.5   c0.166,0,0.321,0.082,0.414,0.22s0.111,0.312,0.05,0.466l-2,5C10.888,15.878,10.701,16,10.5,16z M9.238,12H10.5   c0.276,0,0.5,0.224,0.5,0.5v0.403L11.762,11H10.5c-0.276,0-0.5-0.224-0.5-0.5v-0.403L9.238,12z"></path></g></svg>
